X:0091
T:The Highlandman Kiss'd his Mother.
M:2/4
L:1/8
Q:1/4=128
I: :: ::
Z:Jack Campin * www.campin.me.uk * 2009
K:G
GddB|dGdB|GddB| AFDF        |GddB|dGdB|e^cdB|AFDF:|
GBEB|GBEB|GBEB|(A/G/F/E/) DF|GBEd|GBEd|e^cdB|AFDF:|
<end>
<start>
